src/appstore.svg

<svg width="161" height="54" viewBox="0 0 161 54" fill="none" xmlns="http://www.w3.org/2000/svg">
<path d="M147.263 -8.50359e-07H12.7491C12.2587 -8.50359e-07 11.7745 -8.50359e-07 11.2851 0.00270097C10.8761 0.00526445 10.4698 0.0132275 10.0566 0.0195752C9.1666 0.0421175 8.26561 0.0976066 7.37715 0.258389C6.48191 0.416613 5.65038 0.686608 4.83558 1.10484C4.03487 1.51875 3.30363 2.05659 2.67111 2.69582C2.03128 3.33544 1.50113 4.07633 1.09581 4.8843C0.679529 5.70591 0.415762 6.54966 0.260112 7.45403C0.0987172 8.34786 0.043352 9.25223 0.0203702 10.1566C0.0078347 10.5706 0.00679008 10.9862 0 11.4001C0 11.8889 0 12.3794 0 12.8735V41.1275C0 41.6259 0 42.1137 0 42.6041C0.00679008 43.0233 0.0078347 43.4294 0.0203702 43.8486C0.043352 44.753 0.0987172 45.6574 0.260112 46.5513C0.415762 47.4557 0.679529 48.3036 1.09581 49.1221C1.50113 49.9263 2.03128 50.6672 2.67111 51.3016C3.30363 51.946 4.03487 52.4828 4.83558 52.8926C5.65038 53.3145 6.48191 53.5808 7.37715 53.7442C8.26561 53.9051 9.1666 53.9578 10.0566 53.9826C10.4698 53.9921 10.8761 53.9974 11.2851 53.9974C11.7745 54 12.2587 54 12.7491 54H147.263C147.745 54 148.232 54 148.712 53.9974C149.121 53.9974 149.538 53.9921 149.946 53.9826C150.842 53.9578 151.741 53.9051 152.62 53.7442C153.516 53.5808 154.348 53.3145 155.172 52.8926C155.97 52.4828 156.701 51.946 157.335 51.3016C157.97 50.6672 158.501 49.9263 158.913 49.1221C159.323 48.3036 159.591 47.4557 159.741 46.5513C159.906 45.6574 159.957 44.753 159.991 43.8486C159.995 43.4294 159.995 43.0233 159.995 42.6041C160.005 42.1137 160.005 41.6259 160.005 41.1275V12.8735C160.005 12.3794 160.005 11.8889 159.995 11.4001C159.995 10.9862 159.995 10.5706 159.991 10.1566C159.957 9.25223 159.906 8.34786 159.741 7.45403C159.591 6.54966 159.323 5.70591 158.913 4.8843C158.501 4.07633 157.97 3.33544 157.335 2.69582C156.701 2.05659 155.97 1.51875 155.172 1.10484C154.348 0.686608 153.516 0.416613 152.62 0.258389C151.741 0.0976066 150.842 0.0421175 149.946 0.0195752C149.538 0.0132275 149.121 0.00526445 148.712 0.00270097C148.232 -8.50359e-07 147.745 -8.50359e-07 147.263 -8.50359e-07Z" fill="#B2B1B1"/>
<path d="M11.2919 52.8187C10.8845 52.8187 10.487 52.8135 10.0827 52.8045C9.33529 52.7829 8.44841 52.7412 7.58345 52.5841C6.76708 52.4348 6.04211 52.1923 5.36832 51.8442C4.67104 51.4872 4.04426 51.0258 3.50001 50.4721C2.94636 49.9236 2.49142 49.2934 2.13573 48.5868C1.78891 47.9055 1.55178 47.1735 1.40972 46.3493C1.24623 45.4412 1.20444 44.5194 1.18721 43.818C1.17833 43.5338 1.16736 42.5856 1.16736 42.5856V11.4001C1.16736 11.4001 1.17937 10.4661 1.18721 10.192C1.20444 9.48482 1.24623 8.56399 1.40815 7.66489C1.55126 6.83653 1.78839 6.1051 2.13521 5.42105C2.49038 4.71285 2.94584 4.07956 3.49218 3.53375C4.0453 2.97472 4.67469 2.51221 5.36727 2.15365C6.05411 1.80143 6.77857 1.56087 7.57823 1.41911C8.4787 1.25617 9.39118 1.21554 10.0859 1.19758L11.2924 1.18124H148.705L149.926 1.19812C150.612 1.21554 151.525 1.25617 152.412 1.41803C153.217 1.56046 153.947 1.80197 154.646 2.1573C155.332 2.51221 155.959 2.97472 156.506 3.52849C157.056 4.07686 157.512 4.71392 157.875 5.42429C158.22 6.11455 158.454 6.84544 158.592 7.65018C158.746 8.50189 158.794 9.37669 158.823 10.1983C158.827 10.5806 158.827 10.9909 158.827 11.4001C158.839 11.9063 158.839 12.3879 158.839 12.8735V41.1275C158.839 41.618 158.839 42.0963 158.827 42.5788C158.827 43.0181 158.827 43.4204 158.822 43.8339C158.794 44.6291 158.746 45.5034 158.593 46.3361C158.454 47.164 158.22 47.896 157.871 48.591C157.512 49.2924 157.053 49.9263 156.514 50.4615C155.961 51.0258 155.333 51.4861 154.643 51.8421C153.948 52.1975 153.241 52.4338 152.412 52.5841C151.556 52.7412 150.67 52.7829 149.913 52.8045C149.522 52.8135 149.11 52.8187 148.712 52.8187L147.263 52.8214L11.2919 52.8187Z" fill="#040403"/>
<path d="M33.1193 27.4061C33.0855 23.692 36.1305 21.8852 36.27 21.8003C34.5458 19.2618 31.872 18.9142 30.9335 18.8873C28.6881 18.6496 26.5115 20.2442 25.3667 20.2442C24.2008 20.2442 22.4391 18.9111 20.5421 18.9506C18.1002 18.9891 15.8146 20.4166 14.5615 22.6336C11.9756 27.1535 13.9039 33.7975 16.3814 37.4503C17.6207 39.2413 19.0691 41.2399 20.9641 41.1681C22.8193 41.0906 23.512 39.9742 25.7506 39.9742C27.9689 39.9742 28.618 41.1681 30.5522 41.1233C32.5422 41.0906 33.7963 39.3256 34.9918 37.5195C36.424 35.4681 36.9996 33.4484 37.0221 33.3445C36.9756 33.3287 33.157 31.8578 33.1193 27.4061Z" fill="white"/>
<path d="M29.4663 16.4847C30.4634 15.2249 31.1461 13.5121 30.957 11.7724C29.5128 11.8368 27.7077 12.7802 26.6682 14.0131C25.748 15.0984 24.9258 16.8781 25.1384 18.5503C26.7602 18.6727 28.4259 17.7245 29.4663 16.4847Z" fill="white"/>
<path d="M50.8895 34.5473H55.9063L53.4331 27.194H53.3643L50.8895 34.5473ZM56.5633 36.6383H50.2341L48.714 41.1697H46.0335L52.0281 24.4054H54.8137L60.8083 41.1697H58.0818L56.5633 36.6383Z" fill="white"/>
<path d="M71.2012 35.0588C71.2012 32.5846 69.9346 30.9577 68.002 30.9577C66.1034 30.9577 64.8264 32.6188 64.8264 35.0588C64.8264 37.5215 66.1034 39.1711 68.002 39.1711C69.9346 39.1711 71.2012 37.5558 71.2012 35.0588ZM73.7554 35.0588C73.7554 38.8573 71.7418 41.2974 68.7031 41.2974C66.9783 41.2974 65.6083 40.5185 64.8943 39.1589H64.8368V45.2129H62.3517V28.9475H64.757V30.9798H64.803C65.4934 29.6684 66.9663 28.8194 68.6576 28.8194C71.7298 28.8194 73.7554 31.2715 73.7554 35.0588Z" fill="white"/>
<path d="M84.5255 35.0588C84.5255 32.5846 83.2589 30.9577 81.3263 30.9577C79.4277 30.9577 78.1506 32.6188 78.1506 35.0588C78.1506 37.5215 79.4277 39.1711 81.3263 39.1711C83.2589 39.1711 84.5255 37.5558 84.5255 35.0588ZM87.0795 35.0588C87.0795 38.8573 85.0661 41.2974 82.0272 41.2974C80.3026 41.2974 78.9325 40.5185 78.2186 39.1589H78.1611V45.2129H75.6759V28.9475H78.0811V30.9798H78.1271C78.8176 29.6684 80.2906 28.8194 81.9818 28.8194C85.0541 28.8194 87.0795 31.2715 87.0795 35.0588Z" fill="white"/>
<path d="M95.8857 36.4985C96.0695 38.1613 97.6694 39.2529 99.8553 39.2529C101.95 39.2529 103.457 38.1613 103.457 36.662C103.457 35.3611 102.548 34.5816 100.396 34.048L98.2439 33.5243C95.1948 32.7807 93.7793 31.3411 93.7793 29.0054C93.7793 26.1131 96.2758 24.126 99.8213 24.126C103.33 24.126 105.735 26.1131 105.816 29.0054H103.308C103.157 27.3322 101.788 26.3223 99.7858 26.3223C97.7844 26.3223 96.4144 27.3444 96.4144 28.8309C96.4144 30.0164 97.2892 30.7141 99.4296 31.2478L101.259 31.7012C104.666 32.515 106.081 33.8966 106.081 36.3482C106.081 39.4848 103.607 41.4492 99.6709 41.4492C95.9886 41.4492 93.5024 39.5307 93.342 36.4985H95.8857Z" fill="white"/>
<path d="M111.444 26.0545V28.9475H113.746V30.934H111.444V37.6724C111.444 38.7192 111.905 39.207 112.917 39.207C113.17 39.207 113.574 39.1711 113.734 39.1484V41.1233C113.459 41.1935 112.906 41.2399 112.354 41.2399C109.903 41.2399 108.947 40.3102 108.947 37.9397V30.934H107.187V28.9475H108.947V26.0545H111.444Z" fill="white"/>
<path d="M124.032 35.0588C124.032 32.4211 122.834 30.8638 120.821 30.8638C118.807 30.8638 117.611 32.4327 117.611 35.0588C117.611 37.7077 118.807 39.2529 120.821 39.2529C122.834 39.2529 124.032 37.7077 124.032 35.0588ZM115.079 35.0588C115.079 31.2135 117.323 28.7971 120.821 28.7971C124.331 28.7971 126.564 31.2135 126.564 35.0588C126.564 38.9154 124.342 41.3216 120.821 41.3216C117.301 41.3216 115.079 38.9154 115.079 35.0588Z" fill="white"/>
<path d="M128.612 28.9475H130.983V31.0278H131.04C131.42 29.6446 132.524 28.8194 133.951 28.8194C134.309 28.8194 134.607 28.8668 134.803 28.9132V31.2599C134.607 31.1776 134.169 31.108 133.687 31.108C132.087 31.108 131.097 32.2006 131.097 33.9204V41.1697H128.612V28.9475Z" fill="white"/>
<path d="M137.86 33.932H143.912C143.854 32.0609 142.67 30.8295 140.943 30.8295C139.229 30.8295 137.987 32.0846 137.86 33.932ZM146.26 37.5795C145.925 39.7987 143.786 41.3216 141.048 41.3216C137.526 41.3216 135.339 38.939 135.339 35.1174C135.339 31.2835 137.538 28.7971 140.943 28.7971C144.293 28.7971 146.399 31.1202 146.399 34.8258V35.6854H137.848V35.8372C137.848 37.9276 139.149 39.2992 141.105 39.2992C142.485 39.2992 143.568 38.6369 143.901 37.5795H146.26Z" fill="white"/>
<path d="M48.9356 18.7028H50.4398C52.1086 18.7028 53.0706 17.6534 53.0706 15.8055C53.0706 13.9857 52.0929 12.9252 50.4398 12.9252H48.9356V18.7028ZM50.5782 11.7867C52.9443 11.7867 54.3326 13.2548 54.3326 15.7892C54.3326 18.3627 52.9547 19.8419 50.5782 19.8419H47.6966V11.7867H50.5782Z" fill="white"/>
<path d="M60.1888 16.7995C60.1888 15.4823 59.6027 14.7119 58.5738 14.7119C57.5406 14.7119 56.9598 15.4823 56.9598 16.7995C56.9598 18.1279 57.5406 18.8926 58.5738 18.8926C59.6027 18.8926 60.1888 18.1227 60.1888 16.7995ZM55.7324 16.7995C55.7324 14.84 56.8156 13.6455 58.5738 13.6455C60.3272 13.6455 61.4109 14.84 61.4109 16.7995C61.4109 18.7703 60.3324 19.9595 58.5738 19.9595C56.8104 19.9595 55.7324 18.7703 55.7324 16.7995Z" fill="white"/>
<path d="M68.9599 19.8419H67.7274L66.4826 15.3646H66.3886L65.1497 19.8419H63.9285L62.2691 13.7631H63.4741L64.5526 18.4017H64.6416L65.8793 13.7631H67.0196L68.2574 18.4017H68.3515L69.4248 13.7631H70.6131L68.9599 19.8419Z" fill="white"/>
<path d="M72.0087 13.7631H73.1526V14.7288H73.2414C73.5338 14.0532 74.1319 13.6455 75.038 13.6455C76.3815 13.6455 77.1221 14.4602 77.1221 15.9068V19.8419H75.9339V16.208C75.9339 15.2307 75.5134 14.7451 74.6349 14.7451C73.7559 14.7451 73.197 15.3372 73.197 16.286V19.8419H72.0087V13.7631Z" fill="white"/>
<path d="M79.0156 11.3901H80.2038V19.8419H79.0156V11.3901Z" fill="white"/>
<path d="M86.3123 16.7995C86.3123 15.4823 85.7257 14.7119 84.6973 14.7119C83.6641 14.7119 83.0832 15.4823 83.0832 16.7995C83.0832 18.1279 83.6641 18.8926 84.6973 18.8926C85.7257 18.8926 86.3123 18.1227 86.3123 16.7995ZM81.8559 16.7995C81.8559 14.84 82.9391 13.6455 84.6973 13.6455C86.4506 13.6455 87.5349 14.84 87.5349 16.7995C87.5349 18.7703 86.4559 19.9595 84.6973 19.9595C82.9339 19.9595 81.8559 18.7703 81.8559 16.7995Z" fill="white"/>
<path d="M92.6563 17.6033V17.0955L91.1859 17.1898C90.3571 17.2463 89.9809 17.531 89.9809 18.0668C89.9809 18.6142 90.4511 18.9321 91.0972 18.9321C91.9929 18.9321 92.6563 18.3569 92.6563 17.6033ZM88.7859 18.1227C88.7859 17.0285 89.5929 16.3978 91.0256 16.3081L92.6563 16.2132V15.6885C92.6563 15.0462 92.2359 14.684 91.4236 14.684C90.7602 14.684 90.3006 14.9297 90.1691 15.3594H89.0183C89.14 14.3153 90.1126 13.6455 91.4785 13.6455C92.988 13.6455 93.8393 14.4044 93.8393 15.6885V19.8419H92.6954V18.9875H92.6014C92.2425 19.5961 91.5845 19.9421 90.7932 19.9421C89.6321 19.9421 88.7859 19.2339 88.7859 18.1227Z" fill="white"/>
<path d="M96.6284 16.7996C96.6284 18.0889 97.2307 18.8652 98.2371 18.8652C99.239 18.8652 99.858 18.0779 99.858 16.8048C99.858 15.5382 99.2322 14.7399 98.2371 14.7399C97.2369 14.7399 96.6284 15.5214 96.6284 16.7996ZM95.4009 16.7996C95.4009 14.879 96.3793 13.6619 97.9003 13.6619C98.7245 13.6619 99.4202 14.0585 99.7466 14.7288H99.8355V11.3901H101.024V19.8419H99.8851V18.8815H99.7911C99.4322 19.546 98.7297 19.9421 97.9003 19.9421C96.3689 19.9421 95.4009 18.7255 95.4009 16.7996Z" fill="white"/>
<path d="M110.397 16.7995C110.397 15.4823 109.811 14.7119 108.782 14.7119C107.748 14.7119 107.168 15.4823 107.168 16.7995C107.168 18.1279 107.748 18.8926 108.782 18.8926C109.811 18.8926 110.397 18.1227 110.397 16.7995ZM105.94 16.7995C105.94 14.84 107.024 13.6455 108.782 13.6455C110.535 13.6455 111.619 14.84 111.619 16.7995C111.619 18.7703 110.54 19.9595 108.782 19.9595C107.019 19.9595 105.94 18.7703 105.94 16.7995Z" fill="white"/>
<path d="M113.213 13.7631H114.357V14.7288H114.446C114.739 14.0532 115.337 13.6455 116.243 13.6455C117.586 13.6455 118.327 14.4602 118.327 15.9068V19.8419H117.139V16.208C117.139 15.2307 116.718 14.7451 115.839 14.7451C114.961 14.7451 114.402 15.3372 114.402 16.286V19.8419H113.213V13.7631Z" fill="white"/>
<path d="M125.041 12.2496V13.7905H126.345V14.8015H125.041V17.9271C125.041 18.5641 125.301 18.8425 125.893 18.8425C126.075 18.8425 126.18 18.8314 126.345 18.8151V19.8143C126.152 19.8472 125.93 19.8756 125.699 19.8756C124.378 19.8756 123.851 19.4062 123.851 18.2339V14.8015H122.896V13.7905H123.851V12.2496H125.041Z" fill="white"/>
<path d="M127.969 11.3901H129.147V14.7398H129.241C129.533 14.0585 130.169 13.6508 131.077 13.6508C132.359 13.6508 133.15 14.4713 133.15 15.9173V19.8419H131.96V16.2132C131.96 15.2423 131.513 14.7504 130.673 14.7504C129.699 14.7504 129.157 15.3704 129.157 16.2918V19.8419H127.969V11.3901Z" fill="white"/>
<path d="M135.898 16.2417H138.94C138.912 15.2871 138.337 14.6671 137.457 14.6671C136.579 14.6671 135.965 15.2924 135.898 16.2417ZM140.078 18.2007C139.808 19.2897 138.845 19.9595 137.469 19.9595C135.745 19.9595 134.688 18.765 134.688 16.8217C134.688 14.879 135.767 13.6455 137.464 13.6455C139.14 13.6455 140.15 14.8015 140.15 16.7099V17.1287H135.898V17.1962C135.938 18.2618 136.552 18.9374 137.502 18.9374C138.222 18.9374 138.714 18.6754 138.935 18.2007H140.078Z" fill="white"/>
</svg>

<svg width="161" height="54" fill="none" xmlns="http://www.w3.org/2000/svg"><path d="M147.263 0H12.749c-.49 0-.975 0-1.464.003-.409.002-.815.01-1.228.017-.89.022-1.791.078-2.68.238a8.608 8.608 0 00-4.706 2.437 8.45 8.45 0 00-1.575 2.19A8.952 8.952 0 00.26 7.453C.1 8.348.043 9.252.02 10.157c-.012.414-.013.83-.02 1.243V42.604c.007.42.008.825.02 1.245.023.904.079 1.808.24 2.702.156.905.42 1.753.836 2.571a8.38 8.38 0 001.575 2.18 8.388 8.388 0 002.165 1.59 8.9 8.9 0 002.541.852c.889.161 1.79.214 2.68.239.413.01.82.014 1.228.014.49.003.974.003 1.464.003h134.514c.482 0 .969 0 1.449-.003.409 0 .826-.005 1.234-.014.896-.025 1.795-.078 2.674-.239a9.053 9.053 0 002.552-.851 8.452 8.452 0 002.163-1.591 8.666 8.666 0 001.578-2.18c.41-.818.678-1.666.828-2.57.165-.895.216-1.799.25-2.703.004-.42.004-.826.004-1.245.01-.49.01-.978.01-1.477V12.873c0-.494 0-.984-.01-1.473 0-.414 0-.83-.004-1.243-.034-.905-.085-1.81-.25-2.703a8.956 8.956 0 00-.828-2.57 8.676 8.676 0 00-3.741-3.78 8.993 8.993 0 00-2.552-.846c-.879-.16-1.778-.216-2.674-.238-.408-.007-.825-.015-1.234-.017-.48-.003-.967-.003-1.449-.003z" fill="#B2B1B1"/><path d="M11.292 52.819c-.408 0-.805-.006-1.21-.015-.747-.021-1.634-.063-2.499-.22a7.818 7.818 0 01-2.215-.74A7.236 7.236 0 013.5 50.472a7.18 7.18 0 01-1.364-1.885 7.763 7.763 0 01-.726-2.238c-.164-.908-.206-1.83-.223-2.531-.009-.284-.02-1.232-.02-1.232V11.4s.012-.934.02-1.208c.017-.707.06-1.628.221-2.527.143-.828.38-1.56.727-2.244a7.25 7.25 0 011.357-1.887 7.447 7.447 0 011.875-1.38 7.732 7.732 0 012.211-.735c.9-.163 1.813-.203 2.508-.221l1.206-.017h137.413l1.221.017c.686.018 1.599.058 2.486.22a7.883 7.883 0 012.234.74 7.384 7.384 0 011.86 1.37 7.442 7.442 0 011.369 1.896c.345.69.579 1.421.717 2.226.154.852.202 1.727.231 2.548.004.383.004.793.004 1.202.012.506.012.988.012 1.473v28.255c0 .49 0 .968-.012 1.45 0 .44 0 .842-.005 1.256-.028.795-.076 1.67-.229 2.502a7.811 7.811 0 01-.722 2.255 7.362 7.362 0 01-1.357 1.87 7.286 7.286 0 01-1.871 1.381 7.82 7.82 0 01-2.231.742c-.856.157-1.742.199-2.499.22-.391.01-.803.015-1.201.015l-1.449.002-135.971-.002z" fill="#040403"/><path d="M33.12 27.406c-.034-3.714 3.01-5.52 3.15-5.606-1.724-2.538-4.398-2.886-5.337-2.913-2.245-.237-4.421 1.357-5.566 1.357-1.166 0-2.928-1.333-4.825-1.293-2.442.038-4.727 1.466-5.98 3.683-2.586 4.52-.658 11.163 1.82 14.816 1.239 1.791 2.687 3.79 4.582 3.718 1.855-.077 2.548-1.194 4.787-1.194 2.218 0 2.867 1.194 4.801 1.15 1.99-.033 3.244-1.798 4.44-3.605 1.432-2.05 2.008-4.07 2.03-4.175-.046-.015-3.865-1.486-3.903-5.938zM29.466 16.485c.997-1.26 1.68-2.973 1.491-4.713-1.444.065-3.25 1.008-4.289 2.241-.92 1.085-1.742 2.865-1.53 4.537 1.622.123 3.288-.826 4.328-2.065zM50.89 34.547h5.016l-2.473-7.353h-.069l-2.474 7.353zm5.673 2.091h-6.329l-1.52 4.532h-2.68l5.994-16.765h2.786l5.994 16.765h-2.726l-1.519-4.532zM71.201 35.059c0-2.474-1.266-4.101-3.199-4.101-1.899 0-3.176 1.66-3.176 4.1 0 2.464 1.277 4.113 3.176 4.113 1.933 0 3.2-1.615 3.2-4.112zm2.554 0c0 3.798-2.013 6.238-5.052 6.238-1.725 0-3.095-.778-3.809-2.138h-.057v6.054h-2.485V28.948h2.405v2.032h.046c.69-1.312 2.163-2.16 3.855-2.16 3.072 0 5.097 2.451 5.097 6.239zM84.525 35.059c0-2.474-1.266-4.101-3.199-4.101-1.898 0-3.175 1.66-3.175 4.1 0 2.464 1.277 4.113 3.175 4.113 1.933 0 3.2-1.615 3.2-4.112zm2.554 0c0 3.798-2.013 6.238-5.052 6.238-1.724 0-3.094-.778-3.808-2.138h-.058v6.054h-2.485V28.948h2.405v2.032h.046c.69-1.312 2.164-2.16 3.855-2.16 3.072 0 5.097 2.451 5.097 6.239zM95.886 36.498c.184 1.663 1.783 2.755 3.97 2.755 2.094 0 3.601-1.092 3.601-2.591 0-1.3-.909-2.08-3.061-2.614l-2.152-.524c-3.05-.743-4.465-2.183-4.465-4.519 0-2.892 2.497-4.879 6.042-4.879 3.509 0 5.914 1.987 5.995 4.88h-2.508c-.151-1.674-1.52-2.684-3.522-2.684s-3.372 1.022-3.372 2.509c0 1.185.875 1.883 3.016 2.417l1.829.453c3.407.814 4.822 2.196 4.822 4.647 0 3.137-2.474 5.101-6.41 5.101-3.682 0-6.169-1.918-6.329-4.95h2.544zM111.444 26.055v2.893h2.302v1.986h-2.302v6.738c0 1.047.461 1.535 1.473 1.535.253 0 .657-.036.817-.059v1.975c-.275.07-.828.117-1.38.117-2.451 0-3.407-.93-3.407-3.3v-7.006h-1.76v-1.986h1.76v-2.893h2.497zM124.032 35.059c0-2.638-1.198-4.195-3.211-4.195-2.014 0-3.21 1.569-3.21 4.195 0 2.649 1.196 4.194 3.21 4.194 2.013 0 3.211-1.545 3.211-4.194zm-8.953 0c0-3.845 2.244-6.262 5.742-6.262 3.51 0 5.743 2.416 5.743 6.262 0 3.856-2.222 6.263-5.743 6.263-3.52 0-5.742-2.407-5.742-6.263zM128.612 28.948h2.371v2.08h.057c.38-1.383 1.484-2.209 2.911-2.209.358 0 .656.048.852.094v2.347c-.196-.082-.634-.152-1.116-.152-1.6 0-2.59 1.093-2.59 2.812v7.25h-2.485V28.947zM137.86 33.932h6.052c-.058-1.871-1.242-3.103-2.969-3.103-1.714 0-2.956 1.256-3.083 3.103zm8.4 3.648c-.335 2.219-2.474 3.742-5.212 3.742-3.522 0-5.709-2.383-5.709-6.205 0-3.833 2.199-6.32 5.604-6.32 3.35 0 5.456 2.323 5.456 6.029v.86h-8.551v.151c0 2.09 1.301 3.462 3.257 3.462 1.38 0 2.463-.662 2.796-1.72h2.359zM48.936 18.703h1.504c1.669 0 2.63-1.05 2.63-2.897 0-1.82-.977-2.88-2.63-2.88h-1.504v5.777zm1.642-6.916c2.366 0 3.755 1.468 3.755 4.002 0 2.574-1.378 4.053-3.755 4.053h-2.881v-8.055h2.881zM60.189 16.8c0-1.318-.586-2.088-1.615-2.088-1.033 0-1.614.77-1.614 2.087 0 1.329.58 2.094 1.614 2.094 1.029 0 1.615-.77 1.615-2.094zm-4.457 0c0-1.96 1.084-3.155 2.842-3.155 1.753 0 2.837 1.195 2.837 3.154 0 1.971-1.079 3.16-2.837 3.16-1.764 0-2.842-1.189-2.842-3.16zM68.96 19.842h-1.233l-1.244-4.477h-.094l-1.24 4.477h-1.22l-1.66-6.079h1.205l1.079 4.639h.089l1.237-4.639h1.14l1.238 4.639h.094l1.074-4.639h1.188l-1.653 6.079zM72.009 13.763h1.144v.966h.088c.293-.676.89-1.083 1.797-1.083 1.344 0 2.084.814 2.084 2.26v3.936h-1.188v-3.634c0-.977-.42-1.463-1.3-1.463-.878 0-1.437.592-1.437 1.541v3.556h-1.188v-6.079zM79.016 11.39h1.188v8.452h-1.188V11.39zM86.312 16.8c0-1.318-.586-2.088-1.615-2.088-1.033 0-1.614.77-1.614 2.087 0 1.329.581 2.094 1.614 2.094 1.029 0 1.615-.77 1.615-2.094zm-4.456 0c0-1.96 1.083-3.155 2.841-3.155 1.754 0 2.838 1.195 2.838 3.154 0 1.971-1.08 3.16-2.838 3.16-1.763 0-2.841-1.189-2.841-3.16zM92.656 17.603v-.508l-1.47.095c-.829.056-1.205.341-1.205.877 0 .547.47.865 1.116.865.896 0 1.56-.575 1.56-1.329zm-3.87.52c0-1.095.807-1.725 2.24-1.815l1.63-.095v-.525c0-.642-.42-1.004-1.232-1.004-.664 0-1.123.246-1.255.675h-1.15c.121-1.044 1.094-1.713 2.46-1.713 1.509 0 2.36.758 2.36 2.042v4.154h-1.144v-.854h-.094c-.358.608-1.016.954-1.808.954-1.16 0-2.007-.708-2.007-1.82zM96.628 16.8c0 1.289.603 2.065 1.61 2.065 1.001 0 1.62-.787 1.62-2.06 0-1.267-.626-2.065-1.62-2.065-1.001 0-1.61.781-1.61 2.06zm-1.227 0c0-1.921.978-3.138 2.5-3.138.824 0 1.52.396 1.846 1.067h.088V11.39h1.189v8.452h-1.139v-.96h-.094c-.359.664-1.061 1.06-1.89 1.06-1.532 0-2.5-1.216-2.5-3.142zM110.397 16.8c0-1.318-.586-2.088-1.615-2.088-1.034 0-1.614.77-1.614 2.087 0 1.329.58 2.094 1.614 2.094 1.029 0 1.615-.77 1.615-2.094zm-4.457 0c0-1.96 1.084-3.155 2.842-3.155 1.753 0 2.837 1.195 2.837 3.154 0 1.971-1.079 3.16-2.837 3.16-1.763 0-2.842-1.189-2.842-3.16zM113.213 13.763h1.144v.966h.089c.293-.676.891-1.083 1.797-1.083 1.343 0 2.084.814 2.084 2.26v3.936h-1.188v-3.634c0-.977-.421-1.463-1.3-1.463-.878 0-1.437.592-1.437 1.541v3.556h-1.189v-6.079zM125.041 12.25v1.54h1.304v1.012h-1.304v3.125c0 .637.26.916.852.916.182 0 .287-.012.452-.028v1a3.863 3.863 0 01-.646.06c-1.321 0-1.848-.469-1.848-1.641V14.8h-.955v-1.01h.955V12.25h1.19zM127.969 11.39h1.178v3.35h.094c.292-.681.928-1.09 1.836-1.09 1.282 0 2.073.821 2.073 2.267v3.925h-1.19v-3.629c0-.97-.447-1.463-1.287-1.463-.974 0-1.516.62-1.516 1.542v3.55h-1.188V11.39zM135.898 16.242h3.042c-.028-.955-.603-1.575-1.483-1.575-.878 0-1.492.625-1.559 1.575zm4.18 1.959c-.27 1.089-1.233 1.758-2.609 1.758-1.724 0-2.781-1.194-2.781-3.137s1.079-3.176 2.776-3.176c1.676 0 2.686 1.155 2.686 3.064v.419h-4.252v.067c.04 1.066.654 1.741 1.604 1.741.72 0 1.212-.262 1.433-.736h1.143z" fill="#fff"/></svg>
